X:1
T:Title
%%score { ( 1 3 ) | 2 }
L:1/8
M:4/4
K:G
V:1 treble nm="Grand Piano"
V:3 treble 
V:2 bass 
V:1
 z4 z2[Q:1/4=112] D2 | G2 G2 G2 [FA]2 | B2 c2 B2 G2 | z4 z2 B2 |[M:3/4] [FA]6 |[M:1/4] D2 | %6
[M:4/4] G2 G2 G2 [FA]2 | B2 c2 B2 G2 | d2 [Gd]2 [GB]2 [FA]2 |[M:3/4] G6 |[M:1/4] D2 | %11
[M:4/4] G6 z2 | d6 z2 | B2 B2 d2 B2 |[M:3/4] [FA]6 |[M:1/4] D2 |[M:4/4] G6 z2 | d6 z2 | %18
 B2 [Dd]2 [GB]2 [FA]2 |[M:3/4] G6 |] %20
V:2
 z4 z2 [G,B,]2 | [G,B,D]2 [G,CE]2 [G,B,D]2 [D,D]2 | [G,DG]2 [G,EG]2 [G,DG]2[K:bass] [G,B,]2 | %3
 [D,A,]2 [D,B,]2 [D,A,]2 [G,G]2 |[M:3/4] [D,D]6 |[M:1/4] [G,B,]2 | %6
[M:4/4] [G,B,D]2 [G,CE]2 [G,B,D]2 [D,D]2 | [G,DG]2 [G,EG]2 [G,DG]2[K:bass] [G,B,]2 | %8
 [G,,B,G]2 [B,,G,]2 [D,G,]2 [D,C]2 |[M:3/4] [G,B,]6 |[M:1/4] [G,B,]2 | %11
[M:4/4] [G,B,D]2 [G,C]2 [G,B,]2 z2 | [G,B,G]2 [A,C]2 [B,D]2 [G,B,D]2 | %13
 [G,DG]2 [G,DG]2 [B,DG]2 [G,DG]2 |[M:3/4][K:bass] [D,D]6 |[M:1/4] [G,B,]2 | %16
[M:4/4] [G,B,D]2 [G,C]2 [G,B,]2 z2 | [G,B,G]2 [A,C]2[K:bass] [B,D]2 [G,B,D]2 | %18
 [G,D]2 [B,,G,]2 [D,G,]2 [D,C]2 |[M:3/4] [G,B,]6 |] %20
V:3
 x8 | x8 | x8 | [Fd]2 [Gd]2 [Fd]2 z D |[M:3/4] x6 |[M:1/4] x2 |[M:4/4] x8 | x8 | x8 |[M:3/4] x6 | %10
[M:1/4] x2 |[M:4/4] z2 E2 D2 B2 | z2 F2 G2 G2 | x8 |[M:3/4] x6 |[M:1/4] x2 |[M:4/4] z2 E2 D2 B2 | %17
 z2 F2 G2 G2 | x8 |[M:3/4] x6 |] %20

